svgs/thin/cash-register.svg

<svg xmlns="http://www.w3.org/2000/svg" viewBox="0 0 512 512"><!--! Font Awesome Pro 6.4.2 by @fontawesome - https://fontawesome.com License - https://fontawesome.com/license (Commercial License) Copyright 2023 Fonticons, Inc. --><path d="M80 16C62.3 16 48 30.3 48 48V80c0 17.7 14.3 32 32 32h88 16 88c17.7 0 32-14.3 32-32V48c0-17.7-14.3-32-32-32H80zM272 128H184v32H424.5c31.8 0 58.9 23.4 63.4 54.9l23.5 164.5c.4 3 .6 6 .6 9V448c0 35.3-28.7 64-64 64H64c-35.3 0-64-28.7-64-64V388.5c0-3 .2-6.1 .6-9L24.2 214.9C28.7 183.4 55.7 160 87.5 160H168V128H80c-26.5 0-48-21.5-48-48V48C32 21.5 53.5 0 80 0H272c26.5 0 48 21.5 48 48V80c0 26.5-21.5 48-48 48zM168 176H87.5c-23.9 0-44.1 17.6-47.5 41.2L16.5 381.8c-.1 .7-.2 1.5-.3 2.2H495.8c-.1-.7-.2-1.5-.3-2.2L472 217.2c-3.4-23.6-23.6-41.2-47.5-41.2H184 168zM16 400v48c0 26.5 21.5 48 48 48H448c26.5 0 48-21.5 48-48V400H16zM128 240a16 16 0 1 1 -32 0 16 16 0 1 1 32 0zm80 16a16 16 0 1 1 0-32 16 16 0 1 1 0 32zm-32 64a16 16 0 1 1 -32 0 16 16 0 1 1 32 0zm128-64a16 16 0 1 1 0-32 16 16 0 1 1 0 32zm-32 64a16 16 0 1 1 -32 0 16 16 0 1 1 32 0zm128-64a16 16 0 1 1 0-32 16 16 0 1 1 0 32zm-32 64a16 16 0 1 1 -32 0 16 16 0 1 1 32 0zM96 56H256c4.4 0 8 3.6 8 8s-3.6 8-8 8H96c-4.4 0-8-3.6-8-8s3.6-8 8-8z"/></svg>

<svg xmlns="http://www.w3.org/2000/svg" viewBox="0 0 512 512"><!--! Font Awesome Pro 6.1.1 by @fontawesome - https://fontawesome.com License - https://fontawesome.com/license (Commercial License) Copyright 2022 Fonticons, Inc. --><path d="M256 56C260.4 56 264 59.58 264 64C264 68.42 260.4 72 256 72H96C91.58 72 88 68.42 88 64C88 59.58 91.58 56 96 56H256zM96 240C96 231.2 103.2 224 112 224C120.8 224 128 231.2 128 240C128 248.8 120.8 256 112 256C103.2 256 96 248.8 96 240zM224 240C224 248.8 216.8 256 208 256C199.2 256 192 248.8 192 240C192 231.2 199.2 224 208 224C216.8 224 224 231.2 224 240zM144 320C144 311.2 151.2 304 160 304C168.8 304 176 311.2 176 320C176 328.8 168.8 336 160 336C151.2 336 144 328.8 144 320zM320 240C320 248.8 312.8 256 304 256C295.2 256 288 248.8 288 240C288 231.2 295.2 224 304 224C312.8 224 320 231.2 320 240zM240 320C240 311.2 247.2 304 256 304C264.8 304 272 311.2 272 320C272 328.8 264.8 336 256 336C247.2 336 240 328.8 240 320zM416 240C416 248.8 408.8 256 400 256C391.2 256 384 248.8 384 240C384 231.2 391.2 224 400 224C408.8 224 416 231.2 416 240zM336 320C336 311.2 343.2 304 352 304C360.8 304 368 311.2 368 320C368 328.8 360.8 336 352 336C343.2 336 336 328.8 336 320zM272 128H184V160H424.5C456.3 160 483.3 183.4 487.8 214.9L511.4 379.5C511.8 382.5 512 385.5 512 388.5V448C512 483.3 483.3 512 448 512H64C28.65 512 0 483.3 0 448V388.5C0 385.5 .215 382.5 .6432 379.5L24.15 214.9C28.65 183.4 55.66 160 87.51 160H168V128H80C53.49 128 32 106.5 32 80V48C32 21.49 53.49 0 80 0H272C298.5 0 320 21.49 320 48V80C320 106.5 298.5 128 272 128V128zM48 48V80C48 97.67 62.33 112 80 112H272C289.7 112 304 97.67 304 80V48C304 30.33 289.7 16 272 16H80C62.33 16 48 30.33 48 48zM87.51 176C63.62 176 43.37 193.6 39.99 217.2L16.48 381.8C16.38 382.5 16.29 383.3 16.22 384H495.8C495.7 383.3 495.6 382.5 495.5 381.8L472 217.2C468.6 193.6 448.4 176 424.5 176H87.51zM16 400V448C16 474.5 37.49 496 64 496H448C474.5 496 496 474.5 496 448V400H16z"/></svg>
